src/images_karasa_jaga_svg/cmd/32/flowchartshapes.flowchart-punched-tape.svg

<svg height="32" viewBox="0 0 32 32" width="32" xmlns="http://www.w3.org/2000/svg" xmlns:xlink="http://www.w3.org/1999/xlink"><linearGradient id="a" gradientUnits="userSpaceOnUse" x1="80" x2="80" y1="127.99999" y2="-.871647"><stop offset="0" stop-color="#fff"/><stop offset=".42597079" stop-color="#fff"/><stop offset=".7030763" stop-color="#f1f1f1"/><stop offset=".93115902" stop-color="#eaeaea"/><stop offset="1" stop-color="#dfdfdf"/></linearGradient><linearGradient id="b" gradientUnits="userSpaceOnUse" x1="12" x2="116" y1="63.462219" y2="63.462219"><stop offset="0" stop-color="#7c9fcf"/><stop offset=".5" stop-color="#7c9ece"/><stop offset="1" stop-color="#7b9dcf"/></linearGradient><g fill-rule="evenodd" transform="scale(.25)"><path d="m91.396484 5.2109375c-11.37297-.1282365-21.375745 5.2346435-29.804687 11.6972655l.08203-.0625c-6.770852 4.915759-13.826283 8.329645-21.421875 8.876953-7.595592.547309-15.979853-1.63713-25.916015-8.90039a3.9582434 3.9582434 0 0 0 -6.2929692 3.195312v59.1875 26.361332 2.45117a3.9582434 3.9582434 0 0 0 1.6210937 3.19531c11.0742835 8.09522 21.5658525 11.09729 31.1562495 10.40625 9.590398-.69104 18.031107-4.94036 25.50586-10.36719a3.9582434 3.9582434 0 0 0 .08203-.0625c6.855682-5.25635 14.207263-9.22772 21.810547-9.96679 7.603284-.73908 15.734442 1.46646 25.169922 9.75195a3.9582434 3.9582434 0 0 0 6.56836-2.97461v-88a3.9582434 3.9582434 0 0 0 -1.3457-2.974609c-9.3059-8.1716887-18.38417-11.7148829-27.214846-11.8144535z" fill="url(#b)"/><path d="m91.35156 9.1677004c-10.087038-.1137369-19.28941 4.6994626-27.351562 10.8808596-14.245601 10.34256-30.98955 15.32723-51.999998-.03125v59.18854 26.36029 2.45117c21.010448 15.35848 37.754397 10.37381 51.999998.0312 14.332714-10.989101 31.896399-17.701884 52.000002-.04851v-88c-8.79533-7.723349-16.802965-10.7438376-24.64844-10.8322996z" fill="url(#a)"/></g></svg>

<?xml version="1.0" encoding="UTF-8" standalone="no"?>
<!-- Created with Inkscape (http://www.inkscape.org/) -->

<svg
   xmlns:dc="http://purl.org/dc/elements/1.1/"
   xmlns:cc="http://creativecommons.org/ns#"
   xmlns:rdf="http://www.w3.org/1999/02/22-rdf-syntax-ns#"
   xmlns:svg="http://www.w3.org/2000/svg"
   xmlns="http://www.w3.org/2000/svg"
   xmlns:xlink="http://www.w3.org/1999/xlink"
   xmlns:sodipodi="http://sodipodi.sourceforge.net/DTD/sodipodi-0.dtd"
   xmlns:inkscape="http://www.inkscape.org/namespaces/inkscape"
   version="1.1"
   id="svg2"
   width="128"
   height="128"
   viewBox="0 0 128 128"
   sodipodi:docname="flowchartshapes.flowchart-punched-tape.svg"
   inkscape:export-filename="/home/rizmut/Dokumen/Rizmut/Github/libreoffice-style-karasa-jaga/build/images_karasa_jaga/cmd/32/flowchartshapes.flowchart-punched-tape.png"
   inkscape:export-xdpi="24"
   inkscape:export-ydpi="24"
   inkscape:version="0.92.3 (unknown)">
  <metadata
     id="metadata8">
    <rdf:RDF>
      <cc:Work
         rdf:about="">
        <dc:format>image/svg+xml</dc:format>
        <dc:type
           rdf:resource="http://purl.org/dc/dcmitype/StillImage" />
        <dc:title />
      </cc:Work>
    </rdf:RDF>
  </metadata>
  <defs
     id="defs6">
    <inkscape:perspective
       id="perspective27"
       inkscape:persp3d-origin="64 : 42.666667 : 1"
       inkscape:vp_z="128 : 64 : 1"
       inkscape:vp_y="0 : 1000 : 0"
       inkscape:vp_x="0 : 64 : 1"
       sodipodi:type="inkscape:persp3d" />
    <linearGradient
       id="linearGradient3369">
      <stop
         id="stop3372"
         offset="0"
         style="stop-color:#ffffff;stop-opacity:1;" />
      <stop
         style="stop-color:#ffffff;stop-opacity:1;"
         offset="0.42597079"
         id="stop3374" />
      <stop
         style="stop-color:#f1f1f1;stop-opacity:1;"
         offset="0.7030763"
         id="stop3376" />
      <stop
         id="stop3378"
         offset="0.93115902"
         style="stop-color:#eaeaea;stop-opacity:1;" />
      <stop
         id="stop3384"
         offset="1"
         style="stop-color:#dfdfdf;stop-opacity:1;" />
    </linearGradient>
    <linearGradient
       id="linearGradient7422">
      <stop
         style="stop-color:#7c9fcf;stop-opacity:1"
         offset="0"
         id="stop7424" />
      <stop
         id="stop5348"
         offset="0.5"
         style="stop-color:#7c9ece;stop-opacity:1" />
      <stop
         id="stop7426"
         offset="1"
         style="stop-color:#7b9dcf;stop-opacity:1" />
    </linearGradient>
    <linearGradient
       y2="388.95178"
       x2="399.77466"
       y1="1324.7792"
       x1="405.94968"
       gradientTransform="matrix(0.08097132,0,0,0.07807154,182.74486,-6.9021226)"
       gradientUnits="userSpaceOnUse"
       id="linearGradient2330"
       xlink:href="#linearGradient7422"
       inkscape:collect="always" />
    <linearGradient
       inkscape:collect="always"
       xlink:href="#linearGradient3369"
       id="linearGradient38845"
       gradientUnits="userSpaceOnUse"
       gradientTransform="matrix(-0.40973888,0,0,-0.24845378,382.09099,154.39685)"
       x1="48.807499"
       y1="-276.10406"
       x2="-23.321741"
       y2="515.17896" />
    <linearGradient
       inkscape:collect="always"
       xlink:href="#linearGradient3369"
       id="linearGradient38869"
       x1="80"
       y1="128.65938"
       x2="80"
       y2="-0.21226296"
       gradientUnits="userSpaceOnUse"
       gradientTransform="translate(-1.5904484e-6,-0.65938448)" />
    <linearGradient
       inkscape:collect="always"
       xlink:href="#linearGradient7422"
       id="linearGradient840"
       x1="12"
       y1="63.462219"
       x2="116"
       y2="63.462219"
       gradientUnits="userSpaceOnUse" />
  </defs>
  <sodipodi:namedview
     pagecolor="#ffffff"
     bordercolor="#666666"
     borderopacity="1"
     objecttolerance="10"
     gridtolerance="10"
     guidetolerance="10"
     inkscape:pageopacity="0"
     inkscape:pageshadow="2"
     inkscape:window-width="1366"
     inkscape:window-height="657"
     id="namedview4"
     showgrid="true"
     inkscape:snap-page="true"
     inkscape:snap-global="true"
     inkscape:zoom="1.4142136"
     inkscape:cx="-64.555265"
     inkscape:cy="56.418378"
     inkscape:window-x="0"
     inkscape:window-y="30"
     inkscape:window-maximized="1"
     inkscape:current-layer="svg2"
     showguides="false"
     inkscape:snap-smooth-nodes="true">
    <inkscape:grid
       type="xygrid"
       id="grid837"
       spacingx="4"
       spacingy="4"
       empspacing="1" />
  </sodipodi:namedview>
  <path
     sodipodi:type="inkscape:offset"
     inkscape:radius="3.9578476"
     inkscape:original="M 91.351562 9.1679688 C 81.264524 9.0542319 72.062152 13.867431 64 20.048828 C 49.754399 30.391388 33.010448 35.376058 12 20.017578 L 12 79.205078 L 12 105.56641 L 12 108.01758 C 33.010448 123.37606 49.754399 118.39144 64 108.04883 C 78.332714 97.059727 95.896397 90.346626 116 108 L 116 20 C 107.20467 12.276651 99.197038 9.2564308 91.351562 9.1679688 z "
     style="fill:url(#linearGradient840);fill-opacity:1;fill-rule:evenodd;stroke:none;stroke-width:4.47213125;stroke-linecap:round;stroke-linejoin:round;stroke-miterlimit:4;stroke-dasharray:none;stroke-opacity:1"
     id="path832"
     d="M 91.396484,5.2109375 C 80.023514,5.082701 70.020739,10.445581 61.591797,16.908203 l 0.08203,-0.0625 c -6.770852,4.915759 -13.826283,8.329645 -21.421875,8.876953 -7.595592,0.547309 -15.979853,-1.63713 -25.916015,-8.90039 a 3.9582434,3.9582434 0 0 0 -6.2929692,3.195312 v 59.1875 26.361332 2.45117 a 3.9582434,3.9582434 0 0 0 1.6210937,3.19531 c 11.0742835,8.09522 21.5658525,11.09729 31.1562495,10.40625 9.590398,-0.69104 18.031107,-4.94036 25.50586,-10.36719 a 3.9582434,3.9582434 0 0 0 0.08203,-0.0625 c 6.855682,-5.25635 14.207263,-9.22772 21.810547,-9.96679 7.603284,-0.73908 15.73444,1.46646 25.16992,9.75195 A 3.9582434,3.9582434 0 0 0 119.95703,108 V 20 a 3.9582434,3.9582434 0 0 0 -1.3457,-2.974609 C 109.30543,8.8537023 100.22716,5.3105081 91.396484,5.2109375 Z" />
  <path
     style="fill:url(#linearGradient38869);fill-opacity:1;fill-rule:evenodd;stroke:none;stroke-width:4.47213125;stroke-linecap:round;stroke-linejoin:round;stroke-miterlimit:4;stroke-dasharray:none;stroke-opacity:1"
     d="M 91.35156,9.1677004 C 81.264522,9.0539635 72.06215,13.867163 63.999998,20.04856 49.754397,30.39112 33.010448,35.37579 12,20.01731 v 59.18854 26.36029 2.45117 c 21.010448,15.35848 37.754397,10.37381 51.999998,0.0312 C 78.332712,97.059409 95.896397,90.346626 116,108 V 20 C 107.20467,12.276651 99.197035,9.2561624 91.35156,9.1677004 Z"
     id="path37359"
     inkscape:connector-curvature="0"
     sodipodi:nodetypes="sccccccccs" />
  <g
     transform="matrix(0,0.57912965,0.57912965,0,27.114229,-2.9133545)"
     inkscape:label="Livello 1"
     id="g1544" />
  <g
     transform="matrix(0,-0.57912965,0.57912965,0,27.114229,130.91165)"
     inkscape:label="Livello 1"
     id="g1599" />
  <path
     sodipodi:nodetypes="cccccccc"
     inkscape:connector-curvature="0"
     id="path38843"
     d="m 311.85656,58.862343 v 70.687497 35.89063 2.45117 c 26.72848,26.3861 39.43577,12.86575 52.37305,0 13.63087,-11.48044 28.04527,-20.6103 52.37305,0 V 58.862343 Z"
     style="fill:url(#linearGradient38845);fill-opacity:1;fill-rule:evenodd;stroke:none;stroke-width:4.47213125;stroke-linecap:round;stroke-linejoin:round;stroke-miterlimit:4;stroke-dasharray:none;stroke-opacity:1" />
</svg>
